packages/credential/logos/tg-black.svg

<svg width="24" height="24" viewBox="0 0 24 24" fill="none" xmlns="http://www.w3.org/2000/svg">
    <path fill-rule="evenodd" clip-rule="evenodd"
        d="M4.16133 11.0269C8.6961 9.05119 11.72 7.74867 13.233 7.11936C17.5529 5.32254 18.4506 5.01042 19.0357 5.00011C19.1644 4.99784 19.4521 5.02973 19.6384 5.18096C19.7958 5.30866 19.8391 5.48116 19.8598 5.60223C19.8806 5.7233 19.9064 5.9991 19.8859 6.2146C19.6518 8.6743 18.6388 14.6433 18.1235 17.3983C17.9054 18.564 17.4761 18.9548 17.0604 18.9931C16.1571 19.0762 15.4711 18.3961 14.5962 17.8225C13.2271 16.9251 12.4536 16.3664 11.1247 15.4907C9.58886 14.4786 10.5845 13.9223 11.4597 13.0132C11.6888 12.7753 15.6689 9.15509 15.746 8.82668C15.7556 8.7856 15.7645 8.6325 15.6736 8.55166C15.5826 8.47081 15.4484 8.49846 15.3515 8.52045C15.2142 8.55161 13.0271 9.99723 8.79008 12.8573C8.16927 13.2836 7.60696 13.4913 7.10314 13.4804C6.54773 13.4684 5.47933 13.1664 4.68509 12.9082C3.71092 12.5915 2.93667 12.4241 3.00409 11.8863C3.03921 11.6062 3.42495 11.3197 4.16133 11.0269Z"
        fill="black" />
</svg>

<svg width="24" height="24" fill="none" xmlns="http://www.w3.org/2000/svg"><path fill-rule="evenodd" clip-rule="evenodd" d="M4.161 11.027c4.535-1.976 7.559-3.278 9.072-3.908C17.553 5.323 18.451 5.01 19.036 5c.128-.002.416.03.602.181.158.128.201.3.222.421.02.121.046.397.026.613-.234 2.46-1.247 8.428-1.762 11.183-.219 1.166-.648 1.557-1.064 1.595-.903.083-1.589-.597-2.464-1.17-1.369-.898-2.142-1.457-3.471-2.332-1.536-1.012-.54-1.569.335-2.478.229-.238 4.209-3.858 4.286-4.186.01-.041.018-.194-.072-.275-.091-.081-.226-.054-.322-.032-.138.032-2.325 1.477-6.562 4.337-.62.427-1.183.634-1.687.623-.555-.012-1.624-.314-2.418-.572-.974-.316-1.748-.484-1.68-1.022.034-.28.42-.566 1.156-.86z" fill="#000"/></svg>
